src/topics/icons/sanity.svg

<svg height="104" preserveAspectRatio="xMidYMid" viewBox="0 0 512 104" width="512" xmlns="http://www.w3.org/2000/svg"><path d="m381.461756 36.9858357v64.8339943h-20.886119v-74.9869688z" fill="#f37368"/><path d="m85.8651558 89.7813031 15.6645892 13.6339939 65.994334-34.3750704-6.816997-16.3898017zm274.7104812-41.7722379 53.085553-27.5580737-8.992635-15.51954674-44.092918 21.90141644z" fill="#f7a199"/><path d="m211.18187 31.9093484v69.9104816h-20.015864v-99.64419261zm-125.3167142 57.8719547 15.6645892 13.6339939 30.168839-75.4220959-9.717847-25.81756371z" fill="#f37368"/><path d="m121.980737 2.17563739h20.596034l38.146175 99.64419261h-21.176204zm92.247025 0 43.947875 68.02492921v31.6192634l-67.009631-99.64419261zm81.658924 0h20.741076v99.64419261h-20.741076zm64.688951 18.27535411h-31.909348v-18.27535411h74.406799l10.588102 18.27535411h-32.199434z" fill="#f04939"/><path d="m475.014164 63.9637394v37.8560906h-20.596034v-37.8560906" fill="#f7a199"/><path d="m489.228329 2.17563739-34.810199 61.78810201h20.596034l36.115581-61.78810201z" fill="#f04939"/><path d="m454.41813 63.9637394-35.970538-61.78810201h22.626629l24.222096 42.35240791z" fill="#f37368"/><path d="m8.55750708 13.7790368c0 13.7790369 8.55750712 22.046459 25.67252122 26.3977337l18.1303116 4.2062323c16.2447593 3.7711048 26.1076488 13.0538244 26.1076488 28.1382437.1450425 6.5269121-2.0305949 12.9087818-5.9467422 18.1303116 0-15.0844193-7.8322947-23.2067989-26.5427762-28.1382437l-17.8402267-4.0611898c-14.3592068-3.1909348-25.38243623-10.8781869-25.38243623-27.2679886 0-6.2368272 2.0305949-12.4736544 5.80169971-17.4050992" fill="#f04939"/><g fill="#f37368"><path d="m258.175637 65.1240793v-62.94844191h20.015864v99.64419261h-20.015864z"/><path d="m61.3529745 68.7501416c7.6872521 4.9314448 11.168272 11.8934845 11.168272 21.9014165-6.5269122 8.2674221-17.6951842 12.7637389-30.894051 12.7637389-22.1915014 0-38.00113318-11.023229-41.33711051-30.0237956h21.32124641c2.7558074 8.7025496 10.0079321 12.7637394 19.8708216 12.7637394 11.7484419.1450425 19.725779-6.2368272 19.8708215-17.4050992m-52.79546742-55.1161473c6.23682722-8.12237957 16.96997172-13.05382433 30.02379602-13.05382433 22.7716714 0 35.8254958 12.03852693 39.1614731 28.86345613h-20.596034c-2.3206799-6.6719547-7.9773371-11.8934845-18.2753541-11.8934845-11.168272.1450425-18.7104816 6.5269122-19.1456091 16.6798867-7.4740085-4.1218484-11.4583569-12.1835694-11.16827192-20.596034z"/></g></svg>

<?xml version="1.0" encoding="UTF-8"?>
<svg width="512px" height="104px" viewBox="0 0 512 104" version="1.1" xmlns="http://www.w3.org/2000/svg" xmlns:xlink="http://www.w3.org/1999/xlink" preserveAspectRatio="xMidYMid">
	<g>
		<polygon fill="#F37368" points="381.461756 36.9858357 381.461756 101.81983 360.575637 101.81983 360.575637 26.8328612"></polygon>
		<path d="M85.8651558,89.7813031 L101.529745,103.415297 L167.524079,69.0402266 L160.707082,52.6504249 L85.8651558,89.7813031 Z M360.575637,48.0090652 L413.66119,20.4509915 L404.668555,4.93144476 L360.575637,26.8328612 L360.575637,48.0090652 Z" fill="#F7A199"></path>
		<path d="M211.18187,31.9093484 L211.18187,101.81983 L191.166006,101.81983 L191.166006,2.17563739 L211.18187,31.9093484 Z M85.8651558,89.7813031 L101.529745,103.415297 L131.698584,27.9932011 L121.980737,2.17563739 L85.8651558,89.7813031 Z" fill="#F37368"></path>
		<path d="M121.980737,2.17563739 L142.576771,2.17563739 L180.722946,101.81983 L159.546742,101.81983 L121.980737,2.17563739 Z M214.227762,2.17563739 L258.175637,70.2005666 L258.175637,101.81983 L191.166006,2.17563739 L214.227762,2.17563739 Z M295.886686,2.17563739 L316.627762,2.17563739 L316.627762,101.81983 L295.886686,101.81983 L295.886686,2.17563739 Z M360.575637,20.4509915 L328.666289,20.4509915 L328.666289,2.17563739 L403.073088,2.17563739 L413.66119,20.4509915 L381.461756,20.4509915 L360.575637,20.4509915 Z" fill="#F04939"></path>
		<polyline fill="#F7A199" points="475.014164 63.9637394 475.014164 101.81983 454.41813 101.81983 454.41813 63.9637394"></polyline>
		<polygon fill="#F04939" points="489.228329 2.17563739 454.41813 63.9637394 475.014164 63.9637394 511.129745 2.17563739"></polygon>
		<polygon fill="#F37368" points="454.41813 63.9637394 418.447592 2.17563739 441.074221 2.17563739 465.296317 44.5280453"></polygon>
		<path d="M8.55750708,13.7790368 C8.55750708,27.5580737 17.1150142,35.8254958 34.2300283,40.1767705 L52.3603399,44.3830028 C68.6050992,48.1541076 78.4679887,57.4368272 78.4679887,72.5212465 C78.6130312,79.0481586 76.4373938,85.4300283 72.5212465,90.6515581 C72.5212465,75.5671388 64.6889518,67.4447592 45.9784703,62.5133144 L28.1382436,58.4521246 C13.7790368,55.2611898 2.75580737,47.5739377 2.75580737,31.184136 C2.75580737,24.9473088 4.78640227,18.7104816 8.55750708,13.7790368" fill="#F04939"></path>
		<polygon fill="#F37368" points="258.175637 65.1240793 258.175637 2.17563739 278.191501 2.17563739 278.191501 101.81983 258.175637 101.81983"></polygon>
		<path d="M61.3529745,68.7501416 C69.0402266,73.6815864 72.5212465,80.6436261 72.5212465,90.6515581 C65.9943343,98.9189802 54.8260623,103.415297 41.6271955,103.415297 C19.4356941,103.415297 3.62606232,92.392068 0.290084986,73.3915014 L21.6113314,73.3915014 C24.3671388,82.094051 31.6192635,86.1552408 41.482153,86.1552408 C53.2305949,86.3002833 61.207932,79.9184136 61.3529745,68.7501416 M8.55750708,13.6339943 C14.7943343,5.51161473 25.5274788,0.580169972 38.5813031,0.580169972 C61.3529745,0.580169972 74.4067989,12.6186969 77.7427762,29.4436261 L57.1467422,29.4436261 C54.8260623,22.7716714 49.1694051,17.5501416 38.8713881,17.5501416 C27.7031161,17.6951841 20.1609065,24.0770538 19.725779,34.2300283 C12.2517705,30.1081799 8.2674221,22.0464589 8.55750708,13.6339943 Z" fill="#F37368"></path>
	</g>
</svg>
